X:1
T:Title
%%score ( 1 2 ) ( 3 4 )
L:1/8
M:4/4
K:G
V:1 treble nm="Bright Piano"
V:2 treble 
V:3 bass nm="Bright Piano"
V:4 bass 
V:1
 z4 z2[Q:1/4=100] D2 | [B,G]2 [B,G]2 [DB]2 A-[CA] | [B,G]4 D4 | [CE]2 [CF]2 [B,G]2 [DF]2 | %4
 [CE]4 [B,D]2 [DG]2 | [DB]2 [EA]2 [DG]2 [CF]2 | [B,G]2 [EG]2 [DF]2 [B,E]2 | [A,D]4 [A,^C]4 | %8
 [A,D]4 z2 D2 | [B,G]2 [B,G]2 [DB]2 A-[CA] | [B,G]4 [DA]4 | [EA]2 [DF]2 [B,G]2 [Ec]2 | %12
 [DB]4 [DA]2 F-[CF] | [B,G]2 [DA]2 [Dd]2 [Ec]2 | [DB]4 A2- [CA]2 |[M:3/4] [B,G]4 z2 |] %16
V:2
 x8 | z4 z2 .D2 | x8 | x8 | x8 | x8 | x8 | x8 | x8 | z4 z2 .D2 | x8 | x8 | z4 z2 .D2 | x8 | %14
 z4 D2 z2 |[M:3/4] x6 |] %16
V:3
 z4 z2 D,2 | [G,,D,]2 [G,,D,]2 [G,,G,]2 [D,F,]2 | [G,,G,]4 [B,,G,]4 | %3
 [C,G,]2 [A,,A,]2 [E,G,]2 [B,,B,]2 | [C,G,]4 [G,,G,]2 [B,,G,]2 | z2 .G,2 z4 | %6
 [E,G,]2 [^C,A,]2 [D,A,]2 [G,,G,]2 | [A,,F,]4 [A,,E,]4 | [D,F,]4 z2 D,2 | %9
 [G,,D,]2 [G,,D,]2 [G,,G,]2 [D,F,]2 | [G,,G,]4 [D,F,]4 | [^C,A,]2 [D,A,]2 [E,G,]2 [=C,G,]2 | %12
 G,4 z4 | [E,G,]2 [D,F,]2 [B,,G,]2 [C,G,]2 | [D,G,]4 [D,F,]4 |[M:3/4] [G,,G,]4 z2 |] %16
V:4
 x8 | x8 | x8 | x8 | x8 | [G,,G,]2 C,-[C,C] [D,B,]2 [D,A,]2 | x8 | x8 | x8 | x8 | x8 | x8 | %12
 G,,2 B,,2 [D,F,]2 [D,A,]2 | x8 | x8 |[M:3/4] x6 |] %16

